X: 4767
T: Boys Of Killiecrankie
R: slide
M: 12/8
K: Adorian
|:A2B c2d e2f g3|aba g2e d2B G3|A2B c2d e2g g2e|d2e g2B A3 A3:|
|:a3 a2b a2g e2d|g3 g2e d2B G3|A2B c2d e2g g2e|d2e g2B A3 A3:|

